wp-content/themes/blackfoot/assets/img/icon-shop-dark.svg

<?xml version="1.0" encoding="UTF-8" standalone="no"?>
<svg width="44px" height="45px" viewBox="0 0 44 45" version="1.1" xmlns="http://www.w3.org/2000/svg" xmlns:xlink="http://www.w3.org/1999/xlink" xmlns:sketch="http://www.bohemiancoding.com/sketch/ns">
    <!-- Generator: Sketch 3.3.1 (12002) - http://www.bohemiancoding.com/sketch -->
    <title>Imported Layers Copy 11</title>
    <desc>Created with Sketch.</desc>
    <defs></defs>
    <g id="Home" stroke="none" stroke-width="1" fill="none" fill-rule="evenodd" sketch:type="MSPage">
        <g sketch:type="MSArtboardGroup" transform="translate(-430.000000, -6700.000000)" id="SHOP" fill="#444444">
            <g sketch:type="MSLayerGroup" transform="translate(257.000000, 6692.000000)">
                <g id="Imported-Layers-Copy-11" transform="translate(173.000000, 8.000000)" sketch:type="MSShapeGroup">
                    <path d="M18.5699412,21.3736957 C18.6663529,21.6182609 18.909,21.7663043 19.2021176,21.7154348 L18.8630588,20.7854348 C18.6178235,20.8845652 18.4741765,21.1291304 18.5699412,21.3736957 L18.5699412,21.3736957 Z" id="Fill-1"></path>
                    <path d="M18.9594706,20.7397826 L19.2978824,21.6697826 C19.5405294,21.5726087 19.6874118,21.2771739 19.5884118,21.0326087 C19.4926471,20.8363043 19.25,20.6915217 18.9594706,20.7397826 L18.9594706,20.7397826 Z" id="Fill-2"></path>
                    <path d="M24.2977059,20.936087 C24.1508235,21.1317391 24.1508235,21.4252174 24.3455882,21.6208696 L24.9777647,20.838913 C24.783,20.6915217 24.4924706,20.7397826 24.2977059,20.936087 L24.2977059,20.936087 Z" id="Fill-3"></path>
                    <path d="M25.1214118,20.8845652 L24.4898824,21.6671739 C24.7325294,21.8145652 25.0230588,21.7636957 25.1692941,21.5191304 C25.3161765,21.3254348 25.3161765,21.0326087 25.1214118,20.8845652 L25.1214118,20.8845652 Z" id="Fill-4"></path>
                    <path d="M21.9191176,0.489130435 C9.88252941,0.489130435 0.0808823529,9.7826087 0.0808823529,21.1806522 C0.0808823529,32.5780435 9.88252941,41.8715217 21.9191176,41.8715217 C33.9557059,41.8715217 43.7573529,32.5780435 43.7573529,21.1806522 C43.7573529,9.78521739 33.9557059,0.489130435 21.9191176,0.489130435 L21.9191176,0.489130435 Z M22.5991765,2.73847826 C22.3565294,3.08021739 21.8712353,3.13108696 21.4817059,2.93478261 L22.5001765,1.66369565 C22.7939412,1.95652174 22.8418235,2.44565217 22.5991765,2.73847826 L22.5991765,2.73847826 Z M21.2390588,1.76021739 C21.4817059,1.41913043 21.967,1.36826087 22.3565294,1.56391304 L21.3380588,2.83565217 C21.0442941,2.59369565 20.9485294,2.10456522 21.2390588,1.76021739 L21.2390588,1.76021739 Z M1.38988235,21.8628261 C1.001,21.6182609 0.904588235,21.1780435 1.09935294,20.8363043 L2.50735294,21.7180435 C2.21682353,22.0108696 1.73152941,22.1073913 1.38988235,21.8628261 L1.38988235,21.8628261 Z M2.60311765,21.57 L1.19576471,20.688913 C1.48629412,20.3954348 1.92370588,20.2963043 2.31258824,20.4926087 C2.70211765,20.7397826 2.79788235,21.1806522 2.60311765,21.57 L2.60311765,21.57 Z M17.842,39.1304348 C18.1810588,38.8376087 18.6663529,38.8858696 18.9594706,39.1304348 L17.6983529,40.1569565 C17.5035882,39.8641304 17.5514706,39.4232609 17.842,39.1304348 L17.842,39.1304348 Z M19.0073529,40.3532609 C18.6689412,40.646087 18.1836471,40.5978261 17.8898824,40.3532609 L19.1516471,39.3267391 C19.3457647,39.6195652 19.3457647,40.1086957 19.0073529,40.3532609 L19.0073529,40.3532609 Z M25.0256471,40.5013043 C24.6361176,40.305 24.4924706,39.8641304 24.6361176,39.4741304 L26.1398824,40.2078261 C25.8493529,40.5495652 25.4119412,40.6943478 25.0256471,40.5013043 L25.0256471,40.5013043 Z M26.191,40.0604348 L24.6865882,39.3267391 C24.9292353,38.985 25.3666471,38.8376087 25.8040588,39.033913 C26.191,39.2269565 26.3346471,39.6678261 26.191,40.0604348 L26.191,40.0604348 Z M21.9191176,38.445 C11.8748235,38.445 3.72058824,30.7186957 3.72058824,21.1806522 C3.72058824,11.6426087 11.8748235,3.91304348 21.9191176,3.91304348 C31.9634118,3.91304348 40.1176471,11.6908696 40.1176471,21.1806522 C40.1176471,30.6671739 31.9634118,38.445 21.9191176,38.445 L21.9191176,38.445 Z M41.6692941,20.4469565 C42.0588235,20.298913 42.5441176,20.4952174 42.7362941,20.838913 L41.184,21.4252174 C41.0403529,21.0326087 41.283,20.5917391 41.6692941,20.4469565 L41.6692941,20.4469565 Z M42.3014706,21.9626087 C41.9119412,22.11 41.4266471,21.9143478 41.2351176,21.57 L42.7867647,20.9843478 C42.8825294,21.3736957 42.691,21.8145652 42.3014706,21.9626087 L42.3014706,21.9626087 Z" id="Fill-5"></path>
                    <path d="M21.9191176,42.3097826 C20.8527647,42.3097826 19.8310588,42.2132609 18.8125882,42.1134783 L7.60294118,43.9734783 L7.60294118,44.5108696 L36.2352941,44.5108696 L36.2352941,43.9734783 L25.0256471,42.0652174 C24.0071765,42.2132609 22.9854706,42.3097826 21.9191176,42.3097826 L21.9191176,42.3097826 Z" id="Fill-6"></path>
                    <path d="M21.9191176,4.84304348 C12.408,4.84304348 4.69117647,12.18 4.69117647,21.1806522 C4.69117647,30.1806522 12.408,37.5176087 21.9191176,37.5176087 C31.4302353,37.5176087 39.1470588,30.2295652 39.1470588,21.1806522 C39.1470588,12.1317391 31.4302353,4.84304348 21.9191176,4.84304348 L21.9191176,4.84304348 Z M29.6838235,10.9571739 C30.5075294,10.1752174 31.9155294,10.1752174 32.7424706,10.9571739 C33.5661765,11.7391304 33.5661765,13.061087 32.7424706,13.8436957 C31.9181176,14.6256522 30.5101176,14.6256522 29.6838235,13.8436957 C28.8601176,13.0102174 28.8601176,11.7391304 29.6838235,10.9571739 L29.6838235,10.9571739 Z M25.6067059,12.6691304 C26.2867647,12.9619565 26.6251765,13.6956522 26.3346471,14.381087 C26.0441176,15.0665217 25.2682941,15.3593478 24.5403529,15.1147826 C23.8602941,14.8219565 23.5218824,14.0882609 23.8124118,13.4028261 C24.1029412,12.7173913 24.8787647,12.3763043 25.6067059,12.6691304 L25.6067059,12.6691304 Z M22.2096471,25.3382609 C22.2096471,25.4856522 22.0634118,25.631087 21.9191176,25.631087 C21.7722353,25.631087 21.6285882,25.533913 21.6285882,25.3382609 C21.6285882,25.2893478 21.6285882,25.241087 21.6764706,25.241087 C19.4447647,25.0936957 17.6983529,23.3817391 17.6983529,21.2315217 C17.6983529,19.226087 19.3004706,17.5141304 21.3380588,17.2695652 L21.3380588,16.4393478 C21.4842941,16.5873913 21.6764706,16.683913 21.9191176,16.683913 C22.1617647,16.683913 22.3565294,16.5873913 22.5001765,16.4393478 L22.5001765,17.2695652 C24.5882353,17.5141304 26.1398824,19.226087 26.1398824,21.2315217 C26.1398824,23.3836957 24.3934706,25.0956522 22.1617647,25.241087 C22.2096471,25.2384783 22.2096471,25.2867391 22.2096471,25.3382609 L22.2096471,25.3382609 Z M21.3380588,15.9932609 C21.3380588,15.8458696 21.3859412,15.7004348 21.4842941,15.6013043 L22.3591176,15.6013043 C22.4548824,15.6978261 22.5053529,15.8458696 22.5053529,15.9932609 C22.5053529,16.2867391 22.2148235,16.5795652 21.9242941,16.5795652 C21.6311765,16.5795652 21.3380588,16.2893478 21.3380588,15.9932609 L21.3380588,15.9932609 Z M21.9191176,6.69978261 C23.1323529,6.69978261 24.1029412,7.62978261 24.1029412,8.75347826 C24.1029412,9.87913043 23.1323529,10.8065217 21.9191176,10.8065217 C20.7058824,10.7608696 19.7352941,9.87913043 19.7352941,8.70782609 C19.7352941,7.58152174 20.7058824,6.69978261 21.9191176,6.69978261 L21.9191176,6.69978261 Z M15.4634118,18.6834783 C15.1728824,19.368913 14.3970588,19.6617391 13.6691176,19.4171739 C12.9890588,19.1243478 12.6506471,18.3906522 12.9411765,17.7052174 C13.2317059,17.0204348 14.0075294,16.7269565 14.7354706,16.9715217 C15.4155294,17.2676087 15.7571765,18.0495652 15.4634118,18.6834783 L15.4634118,18.6834783 Z M11.0957647,10.9571739 C11.9201176,10.1752174 13.3281176,10.1752174 14.1544118,10.9571739 C14.9781176,11.7391304 14.9781176,13.061087 14.1544118,13.8436957 C13.3307059,14.6256522 11.9227059,14.6256522 11.0957647,13.8436957 C10.2241765,13.0102174 10.2241765,11.7391304 11.0957647,10.9571739 L11.0957647,10.9571739 Z M8.76829412,23.2336957 C7.55505882,23.2336957 6.58447059,22.3036957 6.58447059,21.1806522 C6.58447059,20.0543478 7.55505882,19.1269565 8.76829412,19.1269565 C9.98152941,19.1269565 10.9521176,20.0569565 10.9521176,21.1806522 C10.9042353,22.3519565 9.98152941,23.2336957 8.76829412,23.2336957 L8.76829412,23.2336957 Z M14.1544118,31.4523913 C13.3307059,32.2343478 11.9227059,32.2343478 11.0957647,31.4523913 C10.2720588,30.6697826 10.2720588,29.3478261 11.0957647,28.5658696 C11.9201176,27.783913 13.3281176,27.783913 14.1544118,28.5658696 C14.9781176,29.3478261 14.9781176,30.6671739 14.1544118,31.4523913 L14.1544118,31.4523913 Z M14.7354706,25.4830435 C14.0560588,25.7758696 13.2317059,25.4347826 12.9411765,24.7976087 C12.6506471,24.1128261 12.9890588,23.3791304 13.6691176,23.0856522 C14.3491765,22.7928261 15.1728824,23.1345652 15.4634118,23.771087 C15.7571765,24.4082609 15.4634118,25.1902174 14.7354706,25.4830435 L14.7354706,25.4830435 Z M18.1325294,12.7173913 C18.8125882,12.4245652 19.6369412,12.7656522 19.9274706,13.4028261 C20.218,14.0882609 19.8795882,14.8219565 19.1995294,15.1147826 C18.5194706,15.4076087 17.6957647,15.0665217 17.4045882,14.4293478 C17.1140588,13.743913 17.4557059,12.9619565 18.1325294,12.7173913 L18.1325294,12.7173913 Z M17.5035882,28.0284783 C17.7941176,27.3430435 18.5699412,27.0502174 19.2978824,27.2947826 C19.9779412,27.5876087 20.3163529,28.3213043 20.0258235,29.0067391 C19.7352941,29.6915217 18.9594706,29.985 18.2315294,29.7404348 C17.5514706,29.4443478 17.2130588,28.7106522 17.5035882,28.0284783 L17.5035882,28.0284783 Z M21.9191176,36.9776087 C19.9779412,36.9776087 18.4262941,35.4619565 18.4262941,33.6508696 C18.4262941,31.7908696 19.9779412,30.3234783 21.9191176,30.3234783 C23.8602941,30.3234783 25.4119412,31.8391304 25.4119412,33.6508696 C25.4119412,35.4619565 23.8602941,36.9776087 21.9191176,36.9776087 L21.9191176,36.9776087 Z M25.6545882,29.688913 C24.9751765,29.9823913 24.1508235,29.6406522 23.8602941,29.0041304 C23.5697647,28.3186957 23.9081765,27.585 24.5882353,27.2921739 C25.2682941,26.9986957 26.092,27.3404348 26.3825294,27.9769565 C26.7241765,28.6623913 26.3825294,29.4443478 25.6545882,29.688913 L25.6545882,29.688913 Z M29.1027647,16.9232609 C29.7821765,16.6304348 30.6065294,16.9715217 30.8970588,17.6086957 C31.1875882,18.2941304 30.8491765,19.0278261 30.1691176,19.3206522 C29.4890588,19.6134783 28.6653529,19.2723913 28.3748235,18.6352174 C28.0331765,18.0013043 28.3748235,17.216087 29.1027647,16.9232609 L29.1027647,16.9232609 Z M28.3748235,23.7228261 C28.6653529,23.0373913 29.4411765,22.7445652 30.1691176,22.9891304 C30.8491765,23.2819565 31.1875882,24.0156522 30.8970588,24.701087 C30.6065294,25.3865217 29.8307059,25.6793478 29.1027647,25.4347826 C28.4227059,25.1419565 28.0810588,24.36 28.3748235,23.7228261 L28.3748235,23.7228261 Z M32.7424706,31.4523913 C31.9181176,32.2343478 30.5101176,32.2343478 29.6838235,31.4523913 C28.8601176,30.6697826 28.8601176,29.3478261 29.6838235,28.5658696 C30.5075294,27.783913 31.9155294,27.783913 32.7424706,28.5658696 C33.5661765,29.3478261 33.5661765,30.6671739 32.7424706,31.4523913 L32.7424706,31.4523913 Z M37.2058824,21.1806522 C37.2058824,22.3063043 36.2352941,23.2336957 35.0220588,23.2336957 C33.8088235,23.2336957 32.8382353,22.3036957 32.8382353,21.1806522 C32.8382353,20.0543478 33.8088235,19.1269565 35.0220588,19.1269565 C36.2352941,19.1726087 37.2058824,20.0543478 37.2058824,21.1806522 L37.2058824,21.1806522 Z" id="Fill-7"></path>
                    <path d="M21.9191176,30.618913 C20.1727059,30.618913 18.7168235,31.9897826 18.7168235,33.6508696 C18.7168235,35.313913 20.1727059,36.6821739 21.9191176,36.6821739 C23.6655294,36.6821739 25.1214118,35.3119565 25.1214118,33.6508696 C25.1214118,31.9897826 23.6655294,30.618913 21.9191176,30.618913 L21.9191176,30.618913 Z M21.9191176,36.2921739 C20.4153529,36.2921739 19.1542353,35.1182609 19.1542353,33.6508696 C19.1542353,32.1834783 20.3674706,31.008913 21.9191176,31.008913 C23.4228824,31.008913 24.684,32.1834783 24.684,33.6508696 C24.684,35.1182609 23.4228824,36.2921739 21.9191176,36.2921739 L21.9191176,36.2921739 Z" id="Fill-8"></path>
                </g>
            </g>
        </g>
    </g>
</svg>

<svg xmlns="http://www.w3.org/2000/svg" width="44" height="45"><title>Imported Layers Copy 11</title><desc>Created with Sketch.</desc><g fill="none"><g fill="#444"><g><path d="M18.57 21.37c.1.25.34.4.63.35l-.34-.93c-.24.08-.4.33-.3.57z"/><path d="M18.96 20.74l.34.93c.24-.1.4-.4.3-.64-.1-.2-.35-.34-.64-.3z"/><path d="M24.3 20.94c-.15.2-.15.5.05.68l.63-.78c-.2-.15-.5-.1-.68.1z"/><path d="M25.12 20.88l-.63.8c.23.13.52.08.67-.16.15-.2.15-.5-.05-.64z"/><path d="M21.92.5C9.88.5.08 9.77.08 21.17s9.8 20.7 21.84 20.7 21.84-9.3 21.84-20.7c0-11.4-9.8-20.7-21.84-20.7zm.68 2.24c-.24.34-.73.4-1.12.2l1.02-1.28c.3.3.34.8.1 1.08zm-1.36-.98c.24-.34.73-.4 1.12-.2l-1.02 1.28c-.3-.25-.4-.74-.1-1.08zM1.4 21.86c-.4-.24-.5-.68-.3-1.02l1.4.88c-.28.3-.77.4-1.1.14zm1.2-.3l-1.4-.87c.3-.3.72-.4 1.1-.2.4.24.5.68.3 1.07zm15.24 17.57c.34-.3.83-.24 1.12 0l-1.26 1.03c-.2-.3-.15-.74.14-1.03zM19 40.35c-.33.3-.82.25-1.1 0l1.25-1.02c.2.3.2.78-.14 1.02zm6.03.15c-.4-.2-.54-.64-.4-1.03l1.5.74c-.28.35-.72.5-1.1.3zm1.16-.44l-1.5-.73c.23-.34.67-.5 1.1-.3.4.2.53.64.4 1.03zm-4.28-1.62c-10.05 0-18.2-7.72-18.2-17.26 0-9.54 8.15-17.27 18.2-17.27 10.04 0 18.2 7.8 18.2 17.28 0 9.5-8.16 17.27-18.2 17.27zm19.75-18c.4-.14.87.06 1.07.4l-1.56.6c-.14-.4.1-.85.5-1zm.63 1.52c-.4.15-.87-.05-1.06-.4L42.8 21c.08.4-.1.83-.5.98z"/><path d="M21.92 42.3c-1.07 0-2.1-.1-3.1-.2L7.6 43.98v.54h28.64v-.53l-11.2-1.9c-1.03.14-2.05.24-3.12.24z"/><path d="M21.92 4.84c-9.5 0-17.23 7.34-17.23 16.34s7.7 16.34 17.22 16.34c9.5 0 17.23-7.3 17.23-16.34 0-9.05-7.72-16.34-17.23-16.34zm7.76 6.12c.83-.78 2.24-.78 3.06 0 .83.78.83 2.1 0 2.88-.82.8-2.23.8-3.06 0-.82-.83-.82-2.1 0-2.88zm-4.07 1.7c.7.3 1.03 1.04.73 1.72-.3.7-1.06.98-1.8.73-.67-.28-1-1-.72-1.7.3-.68 1.08-1.02 1.8-.73zm-3.4 12.68c0 .15-.14.3-.28.3-.15 0-.3-.1-.3-.3 0-.05 0-.1.06-.1-2.24-.15-3.98-1.86-3.98-4 0-2 1.6-3.73 3.64-3.97v-.83c.14.15.34.24.58.24.24 0 .44-.1.58-.24v.83c2.1.24 3.64 1.96 3.64 3.96 0 2.15-1.75 3.87-3.98 4 .05 0 .05.06.05.1zM21.35 16c0-.15.05-.3.14-.4h.88c.1.1.15.25.15.4 0 .3-.3.58-.58.58-.3 0-.58-.3-.58-.6zm.58-9.3c1.2 0 2.18.93 2.18 2.05 0 1.13-.97 2.06-2.18 2.06-1.2-.04-2.18-.92-2.18-2.1 0-1.12.97-2 2.18-2zm-6.46 11.98c-.3.7-1.06.98-1.8.74-.67-.3-1-1.03-.72-1.7.3-.7 1.07-1 1.8-.75.68.3 1.02 1.08.72 1.7zm-4.36-7.72c.82-.78 2.23-.78 3.05 0 .83.78.83 2.1 0 2.88-.82.8-2.23.8-3.05 0-.88-.83-.88-2.1 0-2.88zM8.77 23.23c-1.2 0-2.2-.93-2.2-2.05 0-1.13 1-2.05 2.2-2.05 1.2 0 2.18.93 2.18 2.05-.05 1.17-.97 2.05-2.18 2.05zm5.38 8.22c-.82.78-2.23.78-3.05 0-.83-.78-.83-2.1 0-2.88.82-.8 2.23-.8 3.05 0 .83.78.83 2.1 0 2.88zm.6-5.97c-.7.3-1.52-.05-1.8-.68-.3-.7.04-1.42.72-1.7.68-.3 1.5.03 1.8.67.3.64 0 1.42-.73 1.7zm3.38-12.76c.68-.3 1.5.05 1.8.68.3.7-.05 1.42-.73 1.7-.68.3-1.5-.03-1.8-.67-.3-.7.06-1.47.73-1.7zm-.63 15.3c.3-.68 1.07-.97 1.8-.73.68.3 1.02 1.02.73 1.7-.3.7-1.07.98-1.8.74-.68-.3-1.02-1.03-.73-1.7zM21.92 37c-1.94 0-3.5-1.52-3.5-3.33 0-1.86 1.56-3.33 3.5-3.33s3.5 1.52 3.5 3.33c0 1.8-1.56 3.33-3.5 3.33zm3.73-7.3c-.67.3-1.5-.04-1.8-.68-.28-.68.06-1.4.74-1.7.67-.3 1.5.04 1.78.68.34.68 0 1.46-.73 1.7zm3.45-12.76c.68-.3 1.5.05 1.8.7.3.67-.05 1.4-.73 1.7-.68.3-1.5-.05-1.8-.68-.34-.64 0-1.42.73-1.72zm-.73 6.8c.3-.68 1.07-.98 1.8-.73.68.28 1.02 1.02.73 1.7-.3.7-1.07.98-1.8.73-.68-.3-1.02-1.07-.73-1.7zm4.37 7.73c-.82.78-2.23.78-3.06 0-.82-.78-.82-2.1 0-2.88.83-.8 2.24-.8 3.06 0 .83.78.83 2.1 0 2.88zm4.47-10.27c0 1.13-.96 2.05-2.18 2.05-1.2 0-2.18-.93-2.18-2.05 0-1.13.97-2.05 2.18-2.05 1.22.04 2.2.92 2.2 2.05z"/><path d="M21.92 30.62c-1.75 0-3.2 1.37-3.2 3.03 0 1.66 1.45 3.03 3.2 3.03 1.75 0 3.2-1.37 3.2-3.03 0-1.66-1.45-3.03-3.2-3.03zm0 5.67c-1.5 0-2.77-1.18-2.77-2.65S20.37 31 21.92 31c1.5 0 2.76 1.18 2.76 2.65s-1.26 2.64-2.76 2.64z"/></g></g></g></svg>
